X:641
T:Polska efter Johannes Nord
T:(SvL Skåne nr. 717)
C:Johannes Nord
R:Polska
Z:Patrik Månsson, 2008-10-09
O:Hyllinge, Västra Broby, Skåne
S:Svenska Låtar Skåne
B:Svenska Låtar Skåne
M:3/4
L:1/16
K:C
N: SvL Skåne 717. Jfr Fredin, Gotlandstoner, n:r 227.

|: c4 e4 g4 | a2fa g2eg f2ed | c2e2 e2g2 gfge | fdfg a4 g4 :|
|: [EG,]2[GG,]2 [GG,]2[cE]2 [cE]4 | cdef gfed cBAG | a2af g2ge f2fa | gfed d4 c4 :|


(:musicend:)

(:music:)
